X:401
T:When the King Enjoys His Own Again
M:4/4
K:G
D2 D2 G2 G2 | ABcd B2 AB | c2 E2 F2 G2 | A3 G G4 :|
A2 FG A2 B2 | AGFG A2 B2 | AGFG A2 B2 | E3 E D4 |
d2 dc B2 AG | ABcd B2 AB | c2 E2 F2 G2 | A3 G G4 ||
